X: 497
T: Cripple Creek
C:Herschel Sizemore
B: jims roots
M:4/4
L:1/8
Q: 1/4=100
K:A
V:1 
{g}[A3(a]a) ecBc | defa e2 e2 | ABce cBAF | EFEF {G}[A2A]eg |
a2ga edBc | defa e2 e2 |  ABce cBAF | E2FG A2A2 ||
afaf edBc |defa e2e2 | ABce cBAF | EDGB A2fg |
afaf edBc |defa e2e2 | ABce cBAF | EDGB A2A2 |
abc'b aece | defa e^de2 | abc'b af=cf | ecBe A2A2 |
V:_E=c 
V:=E^c 
[Ec][Ec] [Ec][Ec][Ec][_E(=c] | [=E^c)][Ec]BA E2E2 | [_E=c][=E^c][Ec][Ec] cBFA | EFG[GA] [A2A][A2A] |
[Ec][Ec] [Ec][Ec][Ec][_E(=c] | [=E^c)][Ec]BA E2E2 | [_E=c][=E^c][Ec][Ec] cBAF | EAGB A2fg ||
V:A2e 
(e | e)ac'a ecBc | defa eAAe | abc'b a=c^ce | ecBe A2A2 |
% abcbook-tune_id 6298c245d21f9bfdd4feb0a2


% abcbook-boost 0
% abcbook-tablature 
% abcbook-transpose 
% abcbook-lastupdated 1654178373847
% abcbook-soundfonts 
% abcbook-repeats 1


